!! 00020] TT[TB
!! Zh. Ch. 1-2678, NN), J 3502)
!!!OTL: Zhizi huaer shun qiang zai
!!!ARE: Asia, China,ÿSichuan, Chongqing
!! Ethnic Group: Han
!! MM,
!!!SCT: C0829
!!!YEM: Copyright 1995, estate of Helmut Schaffrath.
**kern
*ICvox
*Ivox
!! Mixed meters:  2/2; 3/2
*M3/2
*k[f#c#g#]
*A:
{8bb
8aa
8bb
[8ff#
2ff#]}
=1
{16ccc#
16eee
8bb
16bb
16eee
8ccc#
[2ccc#
=2
4ccc#]
4aa}
{8ccc#
8aa
8bb
8gg#
=3
2.ff#
8r}
{8ff#
=4
8aa
8ccc#
16bb
16ccc#
8bb
16bb
16ccc#
8aa
8bb
8gg#
=5
8ff#
[4.ff#
2ff#]
4r
4r}
=6
*M2/2
{16ccc#
16eee
8ccc#
8bb
8ccc#
8bb
16ccc#
16eee
[4ccc#
=7
1ccc#]
=8
16bb
16ccc#
8aa
2ff#
4aa}
=9
{16bb
16ccc#
8bb
8aa
8bb
8aa
8ccc#
8.ccc#
16bb
=10
*M3/2
8aa
[4.ff#
2ff#]
4r
4r}
=11
{8cc#
8ff#
16ff#
16aa
8cc#
8cc#
8ff#
2aa
4ff#
=12
*M2/2
8aa
16ff#
16ee
2ff#
4aa}
=13
*M3/2
{8aa
8ccc#
8ccc#
8bb
16bb
16ccc#
8aa
2bb
4aa
=14
16ccc#
16bb
8aa
2.ff#
4r
4r}
=15
*M2/2
{16ccc#
16eee
8ccc#
8bb
8bb
8eee
8eee
[4ccc#
=16
2ccc#]
8ccc#
8aa
8bb
8gg#
=17
8ff#
[4.ff#
4ff#]
4aa}
=18
{8ccc#
8bb
8ccc#
8bb
4bb
4ccc#
=19
*M3/2
8aa
8aa
2.ff#
4r
4r}
=20
*M2/2
{8cc#
8ff#
16ff#
16aa
8cc#
8cc#
8ff#
8aa
8ff#
=21
8cc#
8aa
8aa
8ff#
8ff#
16aa
16cc#
8aa
8ff#}
=22
{16ff#
16aa
8ff#
8cc#
8cc#
8aa
8aa
8ff#
8ff#
=23
8aa
8ff#
8aa
8ff#
8ff#
8aa
4ff#}
=24
{16bb
16ccc#
8bb
8aa
8aa
8ccc#
8ccc#
8bb
8bb
=25
*M3/2
8ccc#
8bb
8ccc#
8bb
8bb
8ccc#
8aa
8ff#
4r
4r}
=26
*M2/2
{16ccc#
16eee
8ccc#
8bb
8bb
8eee
8eee
[4ccc#
=27
2ccc#]}
{8ccc#
8aa
8bb
8gg#
=28
8ff#
[4.ff#
4ff#]
4aa}
=29
{8ccc#
8bb
8ccc#
8bb
4bb
4ccc#
=30
8aa
8aa
2.ff#}
==
!!!AGN: Shange. Caihua
!! Notenbeilage kopiert
!!    Mehrere Verzierungen, Glissandi.
!!!ONB: ESAC (Essen Associative Code) Database: CHINA
!!!AMT: irregular
!!!AIN: vox
!!!EED: Helmut Schaffrath
!!!EEV: 1.0
*-
!!!ONB: Tied note syntax fixed by Craig Sapp, 2004/05/03/
